source/images/copy-icon.svg

<svg width="24" height="24" viewBox="0 0 24 24" fill="none" xmlns="http://www.w3.org/2000/svg">
<path d="M17.1428 4.28564H2.57143C1.15127 4.28564 0 5.43691 0 6.85707V21.4285C0 22.8486 1.15127 23.9999 2.57143 23.9999H17.1428C18.563 23.9999 19.7143 22.8486 19.7143 21.4285V6.85707C19.7143 5.43691 18.563 4.28564 17.1428 4.28564ZM18 21.4285C18 21.9019 17.6162 22.2857 17.1428 22.2857H2.57143C2.09802 22.2857 1.71427 21.9019 1.71427 21.4285V6.85707C1.71427 6.38367 2.09802 5.99991 2.57143 5.99991H17.1428C17.6162 5.99991 18 6.38367 18 6.85707V21.4285Z" fill="#79799E"/>
<path d="M21.4287 0H6.00014C4.57998 0 3.42871 1.15127 3.42871 2.57143C3.42871 3.04483 3.81247 3.42859 4.28587 3.42859C4.75927 3.42859 5.14298 3.04483 5.14298 2.57143C5.14298 2.09802 5.52673 1.71427 6.00014 1.71427H21.4287C21.9021 1.71427 22.2858 2.09802 22.2858 2.57143V18C22.2858 18.4734 21.9021 18.8571 21.4287 18.8571C20.9553 18.8571 20.5715 19.2409 20.5715 19.7143C20.5715 20.1877 20.9553 20.5715 21.4287 20.5715C22.8488 20.5715 24.0001 19.4202 24.0001 18V2.57143C24.0001 1.15127 22.8488 0 21.4287 0Z" fill="#79799E"/>
</svg>

<svg width="24" height="24" fill="none" xmlns="http://www.w3.org/2000/svg"><path d="M17.143 4.286H2.57A2.571 2.571 0 000 6.857V21.43A2.571 2.571 0 002.571 24h14.572a2.571 2.571 0 002.571-2.57V6.857a2.571 2.571 0 00-2.571-2.571zM18 21.428a.857.857 0 01-.857.858H2.57a.857.857 0 01-.857-.858V6.858c0-.474.384-.858.857-.858h14.572c.473 0 .857.384.857.857V21.43z" fill="#79799E"/><path d="M21.429 0H6a2.571 2.571 0 00-2.57 2.571.857.857 0 101.714 0c0-.473.384-.857.857-.857H21.43c.473 0 .857.384.857.857V18a.857.857 0 01-.857.857.857.857 0 000 1.715A2.571 2.571 0 0024 18V2.571A2.571 2.571 0 0021.43 0z" fill="#79799E"/></svg>
